X:1726
T:Svingedans
T:(SkSpF CEB BB-1)
T:från Ljunits härad
B:Skånes Spelmansförbund
R:Svingedans
O:Ljunits härad, Skåne
Z:Åke Persson 2012-03-14
M:3/4
L:1/8
Q:108
%%printtempo 0
%%MIDI ratio 2 1
K:F
C>F A>B A2 | G>F G>A G2 | G>A B>c BG | c>d cA F2 | C>F A>B A2 | G>F G>A G2 | 
G>A B>c BG | c>d cA F2 |: c2 A>F A>c | B2 G>E G>B | A>G F>A c>B | G>E F2 F2 :|
(:musicend:)

En variant från Carl Erik Berndts samlingar. 
Taktstrecken är flyttade i förhållande till originalet som har ömsom 3/4 och 2/4-takter
och förstareprisen tyck upptecknad helt i baktakt.
Förstareprisen har en taktförsjutning och slutar med en paus. Detta ser ut som en feluppteckning. 

(:music:)
